img/bg-pattern-desktop.svg

<svg width="966" height="945" xmlns="http://www.w3.org/2000/svg"><g fill-rule="nonzero" fill="none" opacity=".099"><path d="M468.755 937.353L19.744 671.73c-14.295-8.047-26.548-21.23-12.62-29.878L457.734 381.89c6.754-4.194 17.018-6.946 23.903-2.936l471.265 273.827c14.296 8.308 16.861 31.45 2.619 39.837L527.925 936.933a59.64 59.64 0 01-59.17.42z" fill="#6862E6"/><path d="M468.755 561.353L19.744 295.73c-14.295-8.047-26.548-21.23-12.62-29.878L457.734 5.89c6.754-4.194 17.018-6.946 23.903-2.936l471.265 273.827c14.296 8.308 16.861 31.45 2.619 39.837L527.925 560.933a59.64 59.64 0 01-59.17.42z" stroke="#1E1F36"/><path d="M468.755 636.353L19.744 370.73c-14.295-8.047-26.548-21.23-12.62-29.878L457.734 80.89c6.754-4.194 17.018-6.946 23.903-2.936l471.265 273.827c14.296 8.308 16.861 31.45 2.619 39.837L527.925 635.933a59.64 59.64 0 01-59.17.42z" stroke="#1E1F36"/></g></svg>

<?xml version="1.0" encoding="UTF-8" standalone="no"?>
<!DOCTYPE svg PUBLIC "-//W3C//DTD SVG 1.1//EN" "http://www.w3.org/Graphics/SVG/1.1/DTD/svg11.dtd">
<svg width="100%" height="100%" viewBox="0 0 966 945" version="1.1" xmlns="http://www.w3.org/2000/svg" xmlns:xlink="http://www.w3.org/1999/xlink" xml:space="preserve" xmlns:serif="http://www.serif.com/" style="fill-rule:evenodd;clip-rule:evenodd;">
    <g opacity="0.1">
        <path d="M468.755,937.353L19.744,671.73C5.449,663.683 -6.804,650.5 7.124,641.852L457.734,381.89C464.488,377.696 474.752,374.944 481.637,378.954L952.902,652.781C967.198,661.089 969.763,684.231 955.521,692.618L527.925,936.933C509.688,947.524 487.14,947.684 468.755,937.353Z" style="fill:rgb(104,98,230);fill-rule:nonzero;"/>
        <path d="M468.755,561.353L19.744,295.73C5.449,287.683 -6.804,274.5 7.124,265.852L457.734,5.89C464.488,1.696 474.752,-1.056 481.637,2.954L952.902,276.781C967.198,285.089 969.763,308.231 955.521,316.618L527.925,560.933C509.688,571.524 487.14,571.684 468.755,561.353Z" style="fill:none;fill-rule:nonzero;stroke:rgb(30,31,54);stroke-width:1px;"/>
        <path d="M468.755,636.353L19.744,370.73C5.449,362.683 -6.804,349.5 7.124,340.852L457.734,80.89C464.488,76.696 474.752,73.944 481.637,77.954L952.902,351.781C967.198,360.089 969.763,383.231 955.521,391.618L527.925,635.933C509.688,646.524 487.14,646.684 468.755,636.353Z" style="fill:none;fill-rule:nonzero;stroke:rgb(30,31,54);stroke-width:1px;"/>
    </g>
</svg>
